X: 15
T:Bonnie Kate
R:reel
M:C|
L:1/8
Q:1/2=112
K:D
|:A2dA B2AF|DFAF E2CE|DFAF GBed|cABc ~d3B|
A2dA B2AF|DFAF EA,CE|DFAF GBed|[1 cABc d3B:|[2 cABc d2fg||
|:a2fd Adfa|~g3e cdef|~g3f gbag|fgec defg|
a2fd Adfa|~g3e cdef|~g3f gbag|[1 fgec d2fg:|[2 fgec d3B|]
